!!!!SEGMENT: pl-kk--kk-i-7--023_anonim--deo-gratias.krn
!!!cenid: 16xx:813
!!!COM: Anonim
!!!COM-rismID: pe30004985
!!!CDT:
!!!CNT:
!!!OTL: Deo gratias
!!!PDT:
!!!AGN: Sacred
!!!SMS-siglum: PL-Kk
!!!SMS-shelfmark: Kk.I.7
!!!SMS-shelfwork: 023 W
!!!SMS-variant:
!!!SMS-altvar:
!!!NIFC-rismSourceID: 300258100
!!!NIFC-islandoraID: pl-kk:1956
!!!URL-pdf-islandora: https://repozytorium.nifc.pl/islandora/object/pl-kk%3A1956/datastream/PDF/view
!!!URL-scan: https://polish.musicsources.pl/pl/lokalizacje/galeria/rekopisy/6140 @EN{Scan on Polish Music Herritage in Open Access Website} @PL{Skany w portalu Dziedzictwo Muzyki Polskiej w otwartym dostępie}
!!!ONB-nifc: UWAGA: C (skan 0015 , s.24), A (0101, s.23), T(0177, s.19), B(0267, s.24). Następny utwór: Gaude Maria Virgo
!!!AIN: 1 alto 1 bass 1 soprn 1 tenor
!!!key:
**kern	**text	**kern	**text	**kern	**text	**kern	**text
*part4	*part4	*part3	*part3	*part2	*part2	*part1	*part1
*staff4	*staff4	*staff3	*staff3	*staff2	*staff2	*staff1	*staff1
*Ibass	*	*Itenor	*	*Ialto	*	*Isoprn	*
*I"[BASSVS.]	*	*I"[TENOR.]	*	*I"[ALTVS.]	*	*I"[CANTVS.]	*
*I'[B]	*	*I'[T]	*	*I'[A]	*	*I'[C]	*
*clefF4	*	*clefC4	*	*clefC4	*	*clefC3	*
*k[]	*	*k[]	*	*k[]	*	*k[]	*
*a:	*	*a:	*	*a:	*	*a:	*
*M2/1	*	*M2/1	*	*M2/1	*	*M2/1	*
*met(c|)	*	*met(c|)	*	*met(c|)	*	*met(c|)	*
=1-	=1-	=1-	=1-	=1-	=1-	=1-	=1-
*all\right	*	*all\right	*	*all\right	*	*all\right	*
*	*	*lig	*	*	*	*2\right	*
2.AA/	DE-	1A	DE-	2A/	De-	2.e\	De-
*	*	*	*	*2\right	*	*	*
!	!	!	!	!LO:TX:t=P:problem=kreska pseudotaktowa	!	!	!
.	.	.	.	[y2c\	.	.	.
!LO:TX:t=P:problem=kreska pseudotaktowa	!	!	!	!	!	!LO:TX:t=P:problem=kreska pseudotaktowa	!
4BB/	.	.	.	.	.	4d\	.
!	!	!	!	!LO:N:xstem:cue	!	!	!
4C/	.	1E	.	4c\]	.	4e\	.
4AA/	.	.	.	4d\	.	4f\	.
!	!	!	!	!LO:TX:t=P:problem=kreska pseudotaktowa	!	!	!
4C/	.	.	.	[y2e\	.	1g\	.
!LO:TX:t=P:problem=kreska pseudotaktowa	!	!	!	!	!	!	!
4D/	.	.	.	.	.	.	.
*	*	*Xlig	*	*	*	*	*
=2-	=2-	=2-	=2-	=2-	=2-	=2-	=2-
*	*	*lig	*	*	*	*	*
!	!	!	!	!LO:N:xstem:cue	!	!	!
1E	.	1G	.	4e\]	.	.	.
.	.	.	.	4d\	-o	.	.
.	.	.	.	4B\	.	4f\	.
!	!	!	!	!LO:TX:t=P:problem=kreska pseudotaktowa	!	!LO:TX:t=P:problem=kreska pseudotaktowa	!
.	.	.	.	4c\	.	4e\	.
*2\right	*	*	*	*	*	*	*
2D\	-o	1A	.	2d\	.	2f\	.
!LO:TX:t=P:problem=kreska pseudotaktowa	!	!	!	!	!	!	!
2E\	.	.	.	1c\	.	1e\	.
*	*	*Xlig	*	*	*	*	*
=3-	=3-	=3-	=3-	=3-	=3-	=3-	=3-
*	*	*lig	*	*	*	*	*
1F	gra-	1A	.	.	.	.	.
!	!	!	!	!LO:TX:t=P:problem=kreska pseudotaktowa	!	!LO:TX:t=P:problem=kreska pseudotaktowa	!
.	.	.	.	2A/	.	2d\	.
!	!	!LO:TX:t=P:problem=kreska pseudotaktowa	!	!	!	!	!
2.E\	.	1G	-o	2B\	.	1.e	.
.	.	.	.	2.c\	.	.	.
!LO:TX:t=P:problem=kreska pseudotaktowa	!	!	!	!	!	!	!
4D/	.	.	.	.	.	.	.
*	*	*Xlig	*	*	*	*	*
=4-	=4-	=4-	=4-	=4-	=4-	=4-	=4-
*	*	*lig	*	*	*	*	*
2C/	.	1A	gra-	.	.	.	.
.	.	.	.	4B\	.	.	.
!	!	!	!	!	!	!LO:TX:t=P:problem=kreska pseudotaktowa	!
2D/	.	.	.	1A	gra-	2f\	-o
!LO:TX:t=P:problem=kreska pseudotaktowa	!	!	!	!	!	!	!
1BB	.	1B	.	.	.	1d	.
!	!	!	!	!LO:TX:t=P:problem=kreska pseudotaktowa	!	!	!
.	.	.	.	2G/	.	.	.
*	*	*Xlig	*	*	*	*	*
=5-	=5-	=5-	=5-	=5-	=5-	=5-	=5-
*	*	*lig	*	*	*	*	*
2.AA/	.	1c	.	4A\	.	2c/	.
.	.	.	.	4B\	.	.	.
.	.	.	.	4c\	.	1e	.
!	!	!	!	!LO:TX:t=P:problem=kreska pseudotaktowa	!	!	!
4BB/	.	.	.	4d\	.	.	.
2C/	.	1A	.	2e\	.	.	.
!LO:TX:t=P:problem=kreska pseudotaktowa	!	!	!	!	!	!LO:TX:t=P:problem=kreska pseudotaktowa	!
2D/	.	.	.	4d\	.	2f\	.
!	!	!	!	!LO:TX:t=P:problem=kreska pseudotaktowa	!	!	!
.	.	.	.	4c\	.	.	.
*	*	*Xlig	*	*	*	*	*
=6-	=6-	=6-	=6-	=6-	=6-	=6-	=6-
2E\	.	1G	.	4B\	.	2g\	gra-
.	.	.	.	4A\	.	.	.
4D/	.	.	.	4B\	.	4f\	.
!LO:TX:t=P:problem=kreska pseudotaktowa	!	!	!	!LO:TX:t=P:problem=kreska pseudotaktowa	!	!LO:TX:t=P:problem=kreska pseudotaktowa	!
4C/	.	.	.	4c\	.	4e\	.
1BB	-ti-	0G	-ti-	2d\	.	1d	.
.	.	.	.	2B\	.	.	.
=7-	=7-	=7-	=7-	=7-	=7-	=7-	=7-
2AA/	-as	.	.	2e\	-ti-	2c/	.
*	*ij	*	*	*	*	*	*
!LO:TX:t=P:problem=kreska pseudotaktowa	!	!	!	!	!	!LO:TX:t=P:problem=kreska pseudotaktowa	!
2A\	De-	.	.	1c	-as	2.e\	.
2F\	-o	[1Al	-as.	.	.	.	.
.	.	.	.	.	.	4d\	.
!	!	!	!	!LO:TX:t=P:problem=kreska pseudotaktowa	!	!	!
2D/	gra-	.	.	2d\	.	1d\	.
=8-	=8-	=8-	=8-	=8-	=8-	=8-	=8-
*	*	*	*	*	*ij	*	*
1A	-ti-	0A_	.	1e	De-	.	.
!	!	!	!	!	!	!LO:TX:t=P:problem=kreska pseudotaktowa	!
.	.	.	.	.	.	2c/	-ti-
!LO:TX:t=P:problem=kreska pseudotaktowa	!	!	!	!	!	!	!
1D	-as	.	.	2f\	.	2d\	-as
*	*	*	*	*	*	*	*ij
!	!	!	!	!LO:TX:t=P:problem=kreska pseudotaktowa	!	!	!
.	.	.	.	2d\	.	2f\	De-
=9-	=9-	=9-	=9-	=9-	=9-	=9-	=9-
2rG	.	0A_	.	2c\	-o	2e\	-o.
!	!	!	!	!LO:TX:t=P:problem=kreska pseudotaktowa	!	!LO:TX:t=P:problem=kreska pseudotaktowa	!
2D/	De-	.	.	2d\	.	2f\	.
2D/	-o	.	.	2e\	gra-	2d\	gra-
!LO:TX:t=P:problem=kreska pseudotaktowa	!	!	!	!	!	!	!
2C/	gra-	.	.	2d\	.	2e\	.
=10-	=10-	=10-	=10-	=10-	=10-	=10-	=10-
1D	-ti-	0.A]	.	1d	-ti-	1f	-ti-
0AAl;;	-as	.	.	0c#X;<	-as	0el;	-as
*	*Xij	*	*	*	*Xij	*	*Xij
==	==	==	==	==	==	==	==
*-	*-	*-	*-	*-	*-	*-	*-
!!!system-decoration: [s1,s2,s3,s4]
!!!RDF**kern: < = below
!!!RDF**kern: l = terminal long
!!!ENC: Marta Lawrence
!!!END: 2021-03-09
!!!ENC: Tomasz Grochalski
!!!END: 2021-02-23
